X:1
T:Title
%%score 1 { 2 | 3 }
L:1/8
Q:1/4=100
M:4/4
K:Eb
V:1 treble nm="Grand Piano, Soprano"
V:2 treble nm="Choir Pad, Ararat, LMD"
V:3 bass 
V:1
 [GB]2 [GB]2- [GB][EG] [EG]>[EG] | [EA]>[Ac] [GB]6 | [EG]2 [EG]2- [EG][EG] [EA]2 | [EA]2 [EG]6 | %4
w: By~Walter~E.~Rush,~1904 * * * * *||||
 [B,E]2 [B,D]2- [B,D][B,E] [DF]>[EG] | [FA]>[Ac] [GB]6 | [Ge]2 [Fd]2- [Fd][FB] [Fc]2- | %7
w: |||
 [Fc][FB] [FB]6 | [FB]2 [Ee]2- [Ee][Ee] [Bd]>[Bd] | [Ac]>[Ac] [GB]6 | %10
w: |||
 [EG]2 [EB]2- [EB][EB] [E=A]2 | [EA]2 [EG]6 | [EG]2 [EG]2- [EG][EG] [FG]>[FG] | [FG]>[FG] [Ec]6 | %14
w: ||||
 [CF]2 [B,E]2 [B,D]2 [EG]2- | [EG][DF] [B,E]6- | [B,E]2 z2 z4 |] %17
w: |||
V:2
 E2 E2- EB, B,>B, | C>E E6 | B,2 B,2- B,B, C2 | =B,2 _B,6 | G,2 A,2- A,G, B,>B, | B,>D E6 | %6
 B,2 B,2- B,[K:treble]D E2- | ED D6 | B,2 B,2- B,B, C>[K:treble]C | D>D E6 | B,2 _D2- DD C2 | %11
 =B,2 _B,6 | B,2 B,2- B,B, B,>B, | D>B, C2 G,4 | A,2 G,2 F,2 B,2- | B,A, G,6- | G,2 z2 z4 |] %17
V:3
 E,2 E,2- E,E, E,>E, | E,>E, E,6 | E,2 E,2- E,E, E,2 | E,2 E,6 | z2 F,2- F,E, B,,>B,, | %5
 B,,>B,, E,6 | E,2 F,2- F,F, F,2- | F,B, B,6 | A,2 G,2- G,G, E,>E, | E,>E, E,6 | z8 | z8 | %12
 E,2 E,2- E,E, D,>D, | D,>D, C,6 | A,,2 B,,2 B,,2 B,,2- | B,,B,, [E,,E,]6- | [E,,E,]2 z2 z4 |] %17

